X:3
T:C'est la Vie (third)
C:Lincoln Hilton
R:Slow Air
M:2/4
L:1/4
K:D
Z:Transcribed by Stephen Beitzel
[| {g}A {Gdc}d/{gf}g/ | {g}f a/{ef}e/- | e- e- | e {g}d/e/ |
{gfg}f {g}B/{Gdc}d/- | d/e/ {g}A | {GAG}A- A- | A {g}A/4B/4d/ |
{g}d- d/{g}d/- | d-d | {g}d-d- | d-d |
{g}d- d/{g}f/- | f-f | {g}d-d- | d-d |]
[| {g}d-d- | d-d | {g}d-d- | d-d |
{g}d-d | {g}d-d | {g}e-e- | e-e |
{g}B-B | {g}d-d | {g}c-c | {g}B-B |
{g}d-d | {g}d-d | {g}d e | {g}d-d |
{g}d-d- | d-d- | d-d- | d-d |
{g}d-d- | d-d |]
